X:1
T:Rosefield, 77.77.77
T:Rosefield, 77.77.77
T:Henri Abraham César Malan, 1834
T:Public Domain Courtesy of the Cyber Hymnal™
C:Henri Abraham César Malan, 1834
Z:Public Domain
Z:Courtesy of the Cyber Hymnal™
%%score ( 1 2 ) ( 3 4 )
L:1/8
Q:1/4=110
M:4/4
K:Bb
V:1 treble 
V:2 treble 
V:3 bass 
V:4 bass 
V:1
 [DF]2 [DF]2 [FB]2 [FB]2 | [Fc]2 (Bc) [Fd]4 | [EG]2 ([GB][EG]) F2 ([DB][Fd]) | [Ec]2 [EA]2 [DB]4 | %4
 [DF]2 [DF]2 [FB]2 [FB]2 | [Fc]2 (Bc) [Fd]4 | [EG]2 ([GB][EG]) F2 ([DB][Fd]) | [Ec]2 [EA]2 [DB]4 | %8
 [CF]2 [CF]2 [C=E]2 [CF]2 | [DG]2 (F=E) [CF]4 | [CF]2 [CF]2 [FB]2 ([DB][Ec]) | [Fd]2 [Ec]2 [DB]4 |] %12
V:2
 x8 | x2 F2 x4 | x8 | x8 | x8 | x2 F2 x4 | x8 | x8 | x8 | x2 C2 x4 | x8 | x8 |] %12
V:3
 [B,,B,]2 [B,,B,]2 [D,B,]2 [D,B,]2 | [F,A,]2 ([D,B,][F,A,]) B,4 | %2
 [E,B,]2 [E,B,]2 [D,B,]2 [B,,B,]2 | [F,A,]2 [F,C]2 [B,,B,]4 | [B,,B,]2 [B,,B,]2 [D,B,]2 [D,B,]2 | %5
 [F,A,]2 ([D,B,][F,A,]) B,4 | [E,B,]2 [E,B,]2 [D,B,]2 [B,,B,]2 | [F,A,]2 [F,C]2 [B,,B,]4 | %8
 [F,A,]2 [F,A,]2 [G,B,]2 [F,A,]2 | [B,,B,]2 ([C,A,]G,) [F,A,]4 | %10
 [F,A,]2 ([F,A,][E,C]) [D,B,]2 [G,B,]2 | [F,B,]2 [F,A,]2 [B,,B,]4 |] %12
V:4
 x8 | x4 B,4 | x8 | x8 | x8 | x4 B,4 | x8 | x8 | x8 | x8 | x8 | x8 |] %12

